X: 2053
T: Zülfünü Tasvîr İçin
C: Ahmet Avni Konuk
O: Turkey
F: http://compmusic.upf.edu/node/140
N: acem--kupe--duyek--zulfunu--ahmet_avni_konuk
N: makam= acem
N: form= kupe
N: usul= duyek = 8/4
M: 8/4
L: 1/16
K: C _1/4B   
Q: 1/4=57
%%MIDI tuningsystem comma53
z4 A2A2 A4 f4 f2e2 f2g2 gffe f4  | \
w:  Zül *  *  fü nü  *  *  *  tas  | 
z4 e2f2 g2g2 f2e2 e2f2 e2d2 c4 _2/4B4  | 
w:  vîr  *  *  *  i *  çün  *  *  *  gel  | 
z4 d2e2 d4 e4 f2e2 f2g2 gffe f2g2  | \
w:  sey *  *  di  beh *  *  *  zâd_  | 
f4 g2_b2 a4 g4 f3e d2e2 f6z2  | 
w:  *  ı  *  *  A cem    | 
z4 f4 e4 f4 g4 a4 a2g2 f2e2  | d4 d2e2 d4 .e4 g3^3/4f _3/4e2d2 dcc_2/4B c4  | 
w:  Acz_ *  i le  *  tit  |  *  rer *  *  di  des *  *  *  tin  | 
z4 A2_2/4B2 A4 B4 c4 d2e2 d2c2 B2A2  | \
w:  de  *  *  gö rün *  *  ce   | 
G4 d2d2 d4 c2_2/4B2 B2A2 B2A2 A6z2  | 
w:  *  kıl  *  *  ka *  lem    | 
|


